X:1
T:Dark Is the Night
T:Dark Is the Night
T:Theodore Edson Perkins
T:Frances Jane (Fanny) Crosby, 1868
T:Public Domain Courtesy of the Cyber Hymnal™
T:Public Domain Courtesy of the Cyber Hymnal™
C:Theodore Edson Perkins
Z:Public Domain
Z:Courtesy of the Cyber Hymnal™
%%score ( 1 2 ) 3
L:1/8
Q:1/4=100
M:4/4
K:G
V:1 treble 
V:2 treble 
V:3 bass 
V:1
|: [DB]2 [CA]>[B,G] [B,D]2 [DG]2 | [FA]>[FA] G[FA] [GB]2 [Gd]2 | [DB]2 [CA]>[B,G] E[^DF][=DG][EA] | %3
w: 1.~Dark is the night, and|cold the wind is blow- ing,|Near- er and near- er comes the|
w: Where shall I go, or|whi- ther fly for re- fuge?|Hide me, my Fa- ther, till the|
w: 2.~Dark is the night, but|cheer- ing is the prom- ise,|He will go with me o’er the|
w: Safe He will lead me|through the path- less wa- ters,|Je- sus, the might- y One, and|
w: 3.~Dark is the night, but|lo! the day is break- ing,|On- ward my bark, un- furl thy|
w: Now at the helm I|see my Fa- ther stand- ing,|Soon will my an- chor drop with-|
 [DB]2 [CA]2 !fermata![B,G]2 :| x8 |:"^Refrain" [DB]>[CA] | %6
w: break- ers’ roar;|||
w: storm is o’er.|||
w: trou- bled wave;||With His|
w: strong to save.||I can|
w: ev- ery sail,|||
w: in the veil.|||
 [B,G]>[B,G] [B,G][B,G] [B,G]2 [DG][GB] | [Gd]>[Gd] [Gd][Gd] [Gd]2 [Bd][GB] |1 %8
w: ||
w: ||
w: lov- ing hand to guide, let the|clouds a- bove me roll, And the|
w: brave the wild- est storm, with His|glo- ry in my soul, I can|
w: ||
w: ||
 [FA]>[FA] [FA][FA] [FA][FA] G>[FA] | [GB]2 [FA]4 :|2 [FA]>[FA] [FA][FA] [GB][DA] [DG]>[DF] || %11
w: |||
w: |||
w: bil- lows in their fu- ry dash a-|round me.||
w: ~ ~ ~ ~ ~ ~ ~ ~|~ ~|sing a- midst the tem- pest— Praise the|
w: |||
w: |||
 [DG]6 z2 |] %12
w: |
w: |
w: |
w: Lord!|
w: |
w: |
V:2
|: x8 | x2 G x5 | x4 E x3 | x6 :| x8 |: x2 | x8 | x8 |1 x6 G3/2 x/ | x6 :|2 x8 || x8 |] %12
V:3
|: [G,,G,]2 [G,,G,]>[G,,G,] [G,,G,]2 [G,,B,]2 | [D,C]>[D,C] [D,B,][D,C] [G,D]2 [G,B,]2 | %2
 [G,,G,]2 [G,,G,]>[G,,G,] [C,G,][C,A,][B,,G,][C,G,] | [D,G,]2 [D,F,]2 !fermata![G,,G,]2 :| x8 |: %5
 [G,,G,]>[G,,G,] | [G,,G,]>[G,,G,] [G,,G,][G,,G,] [G,,G,]2 [G,B,][G,D] | %7
 [G,B,]>[G,B,] [G,B,][G,B,] [G,B,]2 [D,D][D,D] |1 [D,D]>[D,D] [D,D][D,D] [D,C][D,C] [D,B,]>[D,D] | %9
 [D,D]2 [D,D]4 :|2 [D,D]>[D,D] [D,D][D,D] [D,D][D,C] [D,B,]>[D,A,] || [G,,B,]6 z2 |] %12

